X: 55
T:Redesdale Hornpipe
% Nottingham Music Database
S:NPTB
M:4/4
L:1/8
R:Hornpipe
K:G
P:A
(3def|"G"gdBd GB(3def|"G"gdBd G2"g#"AB|"Am"cAFA "D"DFAc|"C"ed^cd "D7"B2(3def|
"G"gdBd GB(3def|"G"gdBd G2"g#"AB|"Am"cAFA "D7"DFAB|"G"A2G2 G2:|
P:B
GA|"G"BGFG DGFG|"G"BGFG D2AB|"Am"cAFA "D"DFAc|"C"ed^cd "D7"B2GA|
"G"BGFG DGFG|"G"BGFG D2AB|"Am"cAFA "D7"DFAB|"G"A2G2 G2:|<end>
<start>
